X:784
T:Reel 784
M:4/4
K:Gmaj
L:1/8
 (3def e>d  (3cBA |G>B (3BAB d2e>d|c>A (3AGA B>B (3BAB |c>A (3AAA e2e>A| (3BcB e>G  (3dBA B>A (3Bcd |e2 (3cBc d2 (3def |g2 (3fed e>G (3AGA |BGAG G2B2:||:e>g (3gfg d>g (3gfg |agfg d>B (3BAB |c>A (3AAA a2ag| (3fgf e>e  (3ABc e2| (3gag f>g  (3fgf  (3gfe |d>G (3BcB d2BGAG|c>A (3AAA f>A (3ABA |ed (3edc A>A (3AGA |
